X:0326
T:The Bucket.
M:9/8
L:1/8
Q:3/8=120
I: :: ::
Z:Jack Campin * www.campin.me.uk * 2009
K:D Mixolydian
c|Bcd dBG G2d|(e/f/g)e dBG G2c|\
  Bcd dBG G2B| ABA     AFD D2:|
c|B2E EFE E2c| B2E     EFE D2c|\
  B2E EFE EFG| ABA     AFD D2:|
<end>
<start>
